X: 9899
T: Derwentwater's Farewell
R: waltz
M: 3/4
K: Gmajor
G2|DE G3 G|AB D3 B|cB D3 B|cB A2 G2|E4 G2|DE G3 G|AB D3 B|cB c2 d2|e4 e2|
dB A3 G|cd e3 e|dB A2 G2|E4 G2|DE G3 G|AB c2 e2|dB A3 G|G4||

